X:1
T:Bosnia, 87.87 D
T:Bosnia, 87.87 D
T:Peter August Schnecker, 1897
T:Public Domain Courtesy of the Cyber Hymnal™
C:Peter August Schnecker, 1897
Z:Public Domain
Z:Courtesy of the Cyber Hymnal™
%%score 1 ( 2 3 ) ( 4 5 )
L:1/8
Q:1/4=100
M:4/4
K:G
V:1 treble 
V:2 treble 
V:3 treble 
V:4 bass 
V:5 bass 
V:1
 B>D ^CD A2 G2 | G2 F4 z2 | c>B ^GA B2 A2 | D6 z2 | B>D ^CD A2 G2 | F2 A6 | BFAG F2 E2 | A6 z2 | %8
 d3 d e3 B | d2 c2 B2 A2 | G2 G2 A2 A2 | B2 d2 A4 |] x8 | x8 | x8 | x8 |] %16
V:2
 [DGB]>D ^CD [B,DA]2 G2 | [CDG]2 [CDF]6 | c>B ^GA B2 A2 | D8 | [DGB]>D ^CD A2 G2 | [DF]2 A6 | %6
 BF AG [A,^CF]2 [A,CE]2 | A8 | [DGBd]3 [Dd] [EBe]3 B | [EAd]2 c2 B2 A2 | G2 G2 [DGA]2 [DFA]2 | %11
 [DGB]2 [DGd]2 ([DFA]3 [GB]/[Ac]/) |] [DGBd]3 [ABd] [^GBe]2 [EB]2 | [EAd]2 [EAc]2 [DEB]2 [CEA]2 | %14
 [DG]2 [^CG]2 [DGd]3 [DGB] | [DGB]2 [=CFA]2 [B,DG]4 |] %16
V:3
 x8 | x8 | [CDF]2 x6 | B,4 C4 | x4 B,4 | x8 | [^DF]2 [B,E]2 x4 | (E>DFE D4) | x8 | x8 | x8 | x8 |] %12
 x8 | x8 | x8 | x8 |] %16
V:4
 G,,2 [D,G,B,]2 D,,2 [D,G,B,]2 | A,,2 (D,>^G, B,2 A,2) | D,,2 [D,F,C]4 [D,F,C]2 | %3
 ([G,,G,]2 [^G,,^E,]2) F,4 | G,,2 [D,G,B,]2 E,,2 [E,G,]2 | A,,2 [F,A,D]2 [A,DF]2 [F,A,D]2 | %6
 A,,2 A,2 A,,2 G,2 | ([D,F,]6 D,,2) | [G,,G,]2 [D,G,B,]2 ^G,,2 [E,^G,D]2 | %9
 A,,2 [E,A,C]2 C,2 [E,A,C]2 | [G,B,]2 [B,D]2 D,,2 D,2 | G,,2 B,,2 D,4 |] %12
 [G,,G,]2 [=F,,=F,]2 [E,,E,]2 [^G,,^G,]2 | [A,,A,]4 B,,2 C,2 | [D,B,]2 [_E,_B,]2 [D,=B,]4 | %15
 [D,,D,]4 [G,,D,]4 |] %16
V:5
 x8 | x8 | x8 | x4 (A,,2 D,,2) | x8 | x8 | x4 A,,4 | x8 | x8 | x8 | D,4 x4 | x8 |] x8 | x8 | x8 | %15
 x8 |] %16

